app/data/icon.svg

<svg xmlns="http://www.w3.org/2000/svg" width="48" height="48" version="1.1">
 <path style="opacity:0.2" d="m 16.846877,12 c -1.116351,0 -2.227419,0.912229 -2.015075,2 l 3.122973,16 -5.596557,11.109375 C 11.959876,41.871734 11.885244,42.336988 12.177176,43 c 0.278672,0.632897 0.998812,1 1.747448,1 H 24 34.075375 c 0.748637,0 1.468777,-0.367103 1.747448,-1 0.291932,-0.663012 0.217302,-1.128266 -0.181041,-1.890625 L 30.045225,30 33.168198,14 c 0.212344,-1.087771 -0.898724,-2 -2.015075,-2 H 24 Z"/>
 <path style="fill:#cccccc" d="m 16.846877,11 c -1.116351,0 -2.227419,0.912229 -2.015075,2 l 3.122973,16 -5.596557,11.109375 C 11.959876,40.871734 11.885244,41.336988 12.177176,42 c 0.278672,0.632897 0.998812,1 1.747448,1 H 24 34.075375 c 0.748637,0 1.468777,-0.367103 1.747448,-1 0.291932,-0.663012 0.217302,-1.128266 -0.181041,-1.890625 L 30.045225,29 33.168198,13 c 0.212344,-1.087771 -0.898724,-2 -2.015075,-2 H 24 Z"/>
 <rect style="opacity:0.2" width="40" height="32" x="4" y="6" rx="2" ry="2"/>
 <path style="fill:#e4e4e4" d="m 4,33 v 2 c 0,1.108 0.892,2 2,2 h 36 c 1.108,0 2,-0.892 2,-2 v -2 z"/>
 <path style="opacity:0.1" d="m 11.494141,15 a 1.5,1.5 0 0 0 -0.832032,0.255859 1.5,1.5 0 0 0 -0.40625,2.082032 l 3.13086,4.654297 C 10.404945,24.606192 8.4012371,28.299159 8.0019531,32.460938 7.9284599,34.000879 9.5546875,34 9.5546875,34 H 38.40625 c 0,0 1.672856,-3.38e-4 1.591797,-1.617188 -0.416529,-4.131451 -2.415618,-7.796833 -5.380859,-10.394531 l 3.126953,-4.65039 a 1.5,1.5 0 0 0 -0.40625,-2.082032 1.5,1.5 0 0 0 -1.125,-0.228515 1.5,1.5 0 0 0 -0.957032,0.634765 l -3.072265,4.566407 C 29.78649,18.814887 26.990024,18 24.001953,18 c -2.989385,0 -5.786177,0.815488 -8.183594,2.230469 l -3.074218,-4.56836 A 1.5,1.5 0 0 0 11.787109,15.027344 1.5,1.5 0 0 0 11.494141,15 Z"/>
 <path style="fill:#077063" d="M 6,5 C 4.892,5 4,5.892 4,7 V 33 H 44 V 7 C 44,5.892 43.108,5 42,5 Z"/>
 <path style="opacity:0.1;fill:#ffffff" d="M 6,5 C 4.892,5 4,5.892 4,7 V 8 C 4,6.892 4.892,6 6,6 h 36 c 1.108,0 2,0.892 2,2 V 7 C 44,5.892 43.108,5 42,5 Z"/>
 <path style="fill:none;stroke:#30dd81;stroke-width:3;stroke-linecap:round" d="M 15.1998,21.000026 11.5,15.5"/>
 <path style="fill:none;stroke:#30dd81;stroke-width:3;stroke-linecap:round" d="M 32.799764,21.000026 36.5,15.5"/>
 <path style="fill:#30dd81" d="m 24.002386,17.000034 c -8.355868,0 -15.2214979,6.346843 -15.9999669,14.460906 C 7.9289259,33.000882 9.5544999,33 9.5544999,33 H 38.406003 c 0,0 1.672201,-3.35e-4 1.591142,-1.617185 C 39.182807,23.305596 32.331836,17.000034 24.002386,17.000034 Z"/>
 <path style="opacity:0.2" d="m 16,25 a 1.9999959,1.9999959 0 0 0 -2,2 1.9999959,1.9999959 0 0 0 2,2 1.9999959,1.9999959 0 0 0 2,-2 1.9999959,1.9999959 0 0 0 -2,-2 z m 16,0 a 1.9999959,1.9999959 0 0 0 -2,2 1.9999959,1.9999959 0 0 0 2,2 1.9999959,1.9999959 0 0 0 2,-2 1.9999959,1.9999959 0 0 0 -2,-2 z"/>
 <path style="fill:#ffffff" d="M 15.999996,24.000008 A 1.9999959,1.9999959 0 0 1 17.999992,26.000004 1.9999959,1.9999959 0 0 1 15.999996,28 1.9999959,1.9999959 0 0 1 14,26.000004 1.9999959,1.9999959 0 0 1 15.999996,24.000008 Z"/>
 <path style="fill:#ffffff" d="M 31.999996,24.000008 A 1.9999959,1.9999959 0 0 1 33.999991,26.000004 1.9999959,1.9999959 0 0 1 31.999996,28 1.9999959,1.9999959 0 0 1 30,26.000004 1.9999959,1.9999959 0 0 1 31.999996,24.000008 Z"/>
 <path style="fill:#ffffff;opacity:0.2" d="M 11.494141 14 A 1.5 1.5 0 0 0 10.662109 14.255859 A 1.5 1.5 0 0 0 10.115234 16.001953 A 1.5 1.5 0 0 1 10.662109 15.255859 A 1.5 1.5 0 0 1 11.494141 15 A 1.5 1.5 0 0 1 11.787109 15.027344 A 1.5 1.5 0 0 1 12.744141 15.662109 L 15.818359 20.230469 C 18.215776 18.815488 21.012568 18 24.001953 18 C 26.990024 18 29.78649 18.814887 32.183594 20.228516 L 35.255859 15.662109 A 1.5 1.5 0 0 1 36.212891 15.027344 A 1.5 1.5 0 0 1 37.337891 15.255859 A 1.5 1.5 0 0 1 37.910156 16.001953 A 1.5 1.5 0 0 0 37.337891 14.255859 A 1.5 1.5 0 0 0 36.212891 14.027344 A 1.5 1.5 0 0 0 35.255859 14.662109 L 32.183594 19.228516 C 29.78649 17.814887 26.990024 17 24.001953 17 C 21.012568 17 18.215776 17.815488 15.818359 19.230469 L 12.744141 14.662109 A 1.5 1.5 0 0 0 11.787109 14.027344 A 1.5 1.5 0 0 0 11.494141 14 z M 35.033203 21.369141 L 34.617188 21.988281 C 37.477056 24.493668 39.433905 27.993356 39.943359 31.945312 C 39.986866 31.783283 40.008864 31.598575 39.998047 31.382812 C 39.601372 27.448291 37.768055 23.938648 35.033203 21.369141 z M 12.970703 21.373047 C 10.220358 23.959215 8.3822757 27.496796 8.0019531 31.460938 C 7.9920657 31.668114 8.0150508 31.844846 8.0585938 32 C 8.5570234 28.027243 10.515755 24.509049 13.386719 21.992188 L 12.970703 21.373047 z"/>
</svg>

<svg xmlns="http://www.w3.org/2000/svg" viewBox="0 0 48 48"><path style="opacity:.2" d="M16.85 12c-1.12 0-2.23.9-2.02 2l3.12 16-5.6 11.1c-.39.77-.46 1.24-.17 1.9.28.63 1 1 1.74 1h20.16c.74 0 1.46-.37 1.74-1 .3-.66.22-1.13-.18-1.9L30.04 30l3.13-16c.21-1.1-.9-2-2.02-2H24Z"/><path style="fill:#ccc" d="M16.85 11c-1.12 0-2.23.9-2.02 2l3.12 16-5.6 11.1c-.39.77-.46 1.24-.17 1.9.28.63 1 1 1.74 1h20.16c.74 0 1.46-.37 1.74-1 .3-.66.22-1.13-.18-1.9L30.04 29l3.13-16c.21-1.1-.9-2-2.02-2H24Z"/><rect style="opacity:.2" width="40" height="32" x="4" y="6" rx="2" ry="2"/><path style="fill:#e4e4e4" d="M4 33v2c0 1.1.9 2 2 2h36a2 2 0 0 0 2-2v-2H4z"/><path style="opacity:.1" d="M11.5 15a1.5 1.5 0 0 0-1.24 2.34l3.13 4.65a15.94 15.94 0 0 0-5.38 10.47C7.93 34 9.56 34 9.56 34h28.85s1.67 0 1.6-1.62a15.94 15.94 0 0 0-5.39-10.4l3.13-4.64a1.5 1.5 0 0 0-2.49-1.68l-3.07 4.57S29 18 24 18s-8.19 2.23-8.19 2.23l-3.07-4.57A1.5 1.5 0 0 0 11.5 15z"/><path style="fill:#077063" d="M6 5a2 2 0 0 0-2 2v26h40V7a2 2 0 0 0-2-2H6z"/><path style="fill:none;stroke:#30dd81;stroke-width:3;stroke-linecap:round" d="m15.2 21-3.7-5.5M32.8 21l3.7-5.5"/><path style="fill:#30dd81" d="M24 17A16.05 16.05 0 0 0 8 31.46C7.93 33 9.55 33 9.55 33H38.4s1.68 0 1.6-1.62A16.05 16.05 0 0 0 24 17z"/><circle style="opacity:.2" cx="32" cy="27" r="2"/><circle style="opacity:.2" cx="16" cy="27" r="2"/><g fill="#fff"><path style="opacity:.1" d="M6 5a2 2 0 0 0-2 2v1c0-1.1.9-2 2-2h36a2 2 0 0 1 2 2V7a2 2 0 0 0-2-2H6z"/><circle cx="32" cy="26" r="2"/><circle cx="16" cy="26" r="2"/><path style="opacity:.2" d="M11.5 14a1.47 1.47 0 0 0-1.38 2c.2-.6.73-1 1.37-1 .5 0 .97.24 1.25.66l3.08 4.57S19 18 24 18s8.18 2.23 8.18 2.23l3.08-4.57a1.5 1.5 0 0 1 2.65.34 1.5 1.5 0 0 0-2.65-1.34l-3.08 4.57S29 17 24 17s-8.18 2.23-8.18 2.23l-3.08-4.57A1.5 1.5 0 0 0 11.5 14zm23.53 7.37-.41.62c2.86 2.5 4.81 6 5.32 9.96.05-.17.07-.35.06-.57a15.92 15.92 0 0 0-4.97-10.01zm-22.06 0A15.92 15.92 0 0 0 8 31.47c0 .2.01.38.06.53a15.9 15.9 0 0 1 5.33-10l-.42-.63z"/></g></svg>
